src/pos-icons/download-off.svg

<svg height="24" viewBox="0 0 24 24" width="24" xmlns="http://www.w3.org/2000/svg"><path d="m20.84 22.73-2.73-2.73h-13.11v-2h11.11l-3.05-3.05-1.06 1.05-7-7h2.11l-6-6 1.28-1.27 19.72 19.73zm-1.84-13.73h-4v-6h-6v2.8l6.6 6.6z"/></svg>

<?xml version="1.0" encoding="UTF-8"?><!DOCTYPE svg PUBLIC "-//W3C//DTD SVG 1.1//EN" "http://www.w3.org/Graphics/SVG/1.1/DTD/svg11.dtd"><svg xmlns="http://www.w3.org/2000/svg" xmlns:xlink="http://www.w3.org/1999/xlink" version="1.1" id="mdi-download-off" width="24" height="24" viewBox="0 0 24 24"><path d="M20.84 22.73L18.11 20H5V18H16.11L13.06 14.95L12 16L5 9H7.11L1.11 3L2.39 1.73L22.11 21.46L20.84 22.73M19 9H15V3H9V5.8L15.6 12.4L19 9Z" /></svg>
